dist/svg/positive-benigntrue.svg

<!-- Generated by Trend Micro Style Portal -->
<svg version="1.1" xmlns="http://www.w3.org/2000/svg" width="16" height="16" viewBox="0 0 16 16">
  <title>positive-benigntrue</title>
  <path fill="rgb(34,34,34)" d="M15.6 10l-2.1 2.1-2.1-2.1-0.4 0.4 2.1 2.1-2.1 2.1 0.4 0.4 2.1-2.1 2.1 2.1 0.4-0.4-2.1-2.1 2.1-2.1zM14 1l-8.1 9.8-3.9-3.8-2 2 6 6 10-12zM6 14l-5-5 1-1 3.4 3.3 0.5 0.5 0.5-0.6 7.6-9.2 1 1z"></path>
</svg>

<svg width="16" height="16" viewBox="0 0 16 16" fill="rgb(34, 34, 34)" xmlns="http://www.w3.org/2000/svg"><title>positive-benigntrue</title><path d="M15.6 10L13.5 12.1L11.4 10L11 10.4L13.1 12.5L11 14.6L11.4 15L13.5 12.9L15.6 15L16 14.6L13.9 12.5L16 10.4L15.6 10ZM14 1L5.9 10.8L2 7L0 9L6 15L16 3L14 1ZM6 14L1 9L2 8L5.4 11.3L5.9 11.8L6.4 11.2L14 2L15 3L6 14Z" fill="rgb(34, 34, 34)" fill-opacity="1.00"/></svg>
